svg/girl_0105y_positive.svg

<svg width="48" height="48" viewBox="0 0 48 48" fill="none" xmlns="http://www.w3.org/2000/svg">
<path fill-rule="evenodd" clip-rule="evenodd" d="M12.6369 4V4.002C8.40694 3.9143 6.88766 7.82265 8.55264 18.6698C9.52943 25.9427 2.78231 20.3718 4.76949 17.1478C2.97731 19.6948 4.36819 23.5978 7.92375 23.6018C11.8319 23.8737 9.20933 12.1699 11.8669 8.31395C13.8859 4.53969 18.0428 8.74544 18.9608 11.5899C15.9528 13.6569 14.1099 17.0888 14.1049 20.8028C14.1049 26.9867 19.1188 31.9996 25.3027 31.9996C31.4867 31.9996 36.4996 26.9867 36.4996 20.8028C36.4956 14.9879 32.0416 10.1429 26.2477 9.65193C25.9707 9.62583 25.6937 9.61343 25.4157 9.60933C25.3777 9.60883 25.3407 9.60153 25.3027 9.60153C25.2977 9.60153 25.2877 9.60543 25.2827 9.60543C23.3698 9.75773 21.8508 9.91423 20.2708 10.8069C20.2728 10.8069 20.2748 10.8079 20.2768 10.8089C20.1258 10.8849 19.9808 10.9679 19.8338 11.0509C18.7268 8.00365 17.1678 4.93909 14.6149 4.2734C13.9019 4.1064 13.2409 4.0125 12.6369 4ZM26.7067 14.4999C27.2187 14.5449 27.6837 15.8809 28.1887 17.3028C30.2977 19.1878 32.9906 18.8398 35.2266 18.7318C35.3716 19.4128 35.4466 20.1068 35.4506 20.8028C35.4516 26.4077 30.9077 30.9517 25.3027 30.9507C19.6978 30.9507 15.1559 26.4067 15.1559 20.8028C15.1589 19.5048 15.4099 18.2198 15.8958 17.0178C20.8008 19.3698 22.1968 17.7048 25.3907 17.3028C25.8827 15.2099 26.3087 14.4649 26.7067 14.4999ZM21.5408 19.5348C20.9618 19.5358 20.4928 20.0048 20.4918 20.5838C20.4918 21.1638 20.9608 21.6338 21.5408 21.6348C22.1218 21.6348 22.5918 21.1648 22.5918 20.5838C22.5908 20.0038 22.1208 19.5348 21.5408 19.5348ZM29.1947 19.5348C28.6157 19.5358 28.1467 20.0048 28.1457 20.5838C28.1457 21.1638 28.6157 21.6338 29.1947 21.6348C29.7757 21.6348 30.2467 21.1648 30.2457 20.5838C30.2457 20.0038 29.7747 19.5348 29.1947 19.5348ZM21.9688 25.1817C21.7958 25.1967 21.6388 25.3667 21.6618 25.6427C21.8038 27.0267 23.4178 28.0977 25.3607 28.0997C27.3057 28.0987 28.9197 27.0277 29.0617 25.6427C28.2427 26.7997 26.9617 27.5567 25.3607 27.5897C23.8117 27.5887 22.5188 26.7437 22.3788 25.6427C22.3318 25.3037 22.1418 25.1657 21.9688 25.1817ZM4 33.9996V43.9995H43.9995V33.9996H4ZM7.70305 35.3456C8.47814 35.3456 9.07003 35.6016 9.48043 36.1126C9.89072 36.6206 10.1019 37.3516 10.1109 38.3066V39.6146C10.1109 40.5985 9.90702 41.3515 9.49993 41.8725C9.09283 42.3935 8.49774 42.6535 7.71285 42.6535C6.93776 42.6535 6.34587 42.3975 5.93547 41.8865C5.52518 41.3745 5.31448 40.6435 5.30468 39.6886V38.3786C5.30468 37.3856 5.50958 36.6316 5.91987 36.1166C6.33347 35.6026 6.92796 35.3456 7.70305 35.3456ZM23.0819 35.3456C23.8568 35.3456 24.4488 35.6016 24.8588 36.1126C25.2698 36.6206 25.4798 37.3516 25.4898 38.3066V39.6146C25.4898 40.5985 25.2858 41.3515 24.8788 41.8725C24.4718 42.3935 23.8768 42.6535 23.0919 42.6535C22.3169 42.6535 21.7229 42.3975 21.3119 41.8865C20.9019 41.3745 20.6929 40.6435 20.6839 39.6886V38.3786C20.6839 37.3856 20.8879 36.6316 21.2989 36.1166C21.7119 35.6026 22.3069 35.3456 23.0819 35.3456ZM14.348 35.4336H14.498V42.5565H13.086V37.1146L11.4 37.6366V36.4876L14.348 35.4336ZM27.0678 35.4446H31.0548V36.6226H28.2248L28.0488 38.1516C28.3838 37.9726 28.7408 37.8826 29.1188 37.8826C29.7968 37.8826 30.3268 38.0936 30.7108 38.5136C31.0948 38.9336 31.2888 39.5216 31.2888 40.2765C31.2888 40.7365 31.1898 41.1485 30.9938 41.5135C30.8018 41.8745 30.5258 42.1555 30.1638 42.3565C29.8028 42.5555 29.3768 42.6555 28.8848 42.6555C28.4548 42.6555 28.0558 42.5685 27.6878 42.3955C27.3188 42.2205 27.0268 41.9755 26.8118 41.6595C26.6008 41.3435 26.4898 40.9835 26.4768 40.5795H27.8728C27.9018 40.8755 28.0058 41.1065 28.1818 41.2725C28.3608 41.4355 28.5918 41.5175 28.8788 41.5175C29.1978 41.5175 29.4448 41.4035 29.6168 41.1755C29.7898 40.9435 29.8768 40.6185 29.8768 40.1985C29.8768 39.7946 29.7768 39.4856 29.5778 39.2706C29.3788 39.0556 29.0968 38.9486 28.7318 38.9486C28.3968 38.9486 28.1258 39.0366 27.9178 39.2126L27.7808 39.3396L26.6558 39.0606L27.0678 35.4446ZM31.7188 35.4446H33.3257L34.7947 38.6496L36.2747 35.4446H37.8787L35.5427 39.9785V42.5585H34.0527V39.9785L31.7188 35.4446ZM7.70305 36.4896C7.37086 36.4896 7.12436 36.6196 6.96476 36.8766C6.80846 37.1306 6.72656 37.5296 6.71676 38.0736V39.8026C6.71676 40.3815 6.79486 40.8135 6.95116 41.0975C7.11066 41.3775 7.36436 41.5175 7.71285 41.5175C8.05805 41.5175 8.30784 41.3835 8.46084 41.1125C8.61394 40.8425 8.69264 40.4275 8.69914 39.8705V38.1816C8.69914 37.5916 8.61784 37.1636 8.45504 36.8956C8.29544 36.6256 8.04505 36.4896 7.70305 36.4896ZM23.0819 36.4896C22.7499 36.4896 22.5029 36.6196 22.3439 36.8766C22.1869 37.1306 22.1039 37.5296 22.0939 38.0736V39.8026C22.0939 40.3815 22.1719 40.8135 22.3279 41.0975C22.4879 41.3775 22.7429 41.5175 23.0919 41.5175C23.4369 41.5175 23.6849 41.3835 23.8378 41.1125C23.9908 40.8425 24.0718 40.4275 24.0778 39.8705V38.1816C24.0778 37.5916 23.9968 37.1636 23.8339 36.8956C23.6739 36.6256 23.4239 36.4896 23.0819 36.4896ZM40.1796 37.1756C40.8506 37.1756 41.3866 37.3326 41.7866 37.6476C42.1906 37.9636 42.3926 38.3756 42.3926 38.8806H40.9796C40.9796 38.6786 40.9146 38.5106 40.7846 38.3806C40.6546 38.2466 40.4506 38.1816 40.1736 38.1816C39.9356 38.1816 39.7526 38.2336 39.6227 38.3416C39.4927 38.4486 39.4257 38.5856 39.4257 38.7516C39.4257 38.9076 39.4996 39.0366 39.6456 39.1346C39.7956 39.2286 40.0466 39.3106 40.3976 39.3826C40.7496 39.4506 41.0456 39.5286 41.2866 39.6166C42.0326 39.8906 42.4056 40.3645 42.4056 41.0385C42.4056 41.5205 42.2006 41.9105 41.7866 42.2105C41.3736 42.5065 40.8376 42.6555 40.1836 42.6555C39.7406 42.6555 39.3467 42.5775 39.0017 42.4215C38.6597 42.2615 38.3907 42.0445 38.1947 41.7705C37.9997 41.4945 37.9017 41.1955 37.9017 40.8765H39.2397C39.2527 41.1275 39.3467 41.3215 39.5196 41.4545C39.6916 41.5875 39.9226 41.6535 40.2126 41.6535C40.4826 41.6535 40.6866 41.6045 40.8236 41.5035C40.9636 41.3995 41.0326 41.2635 41.0326 41.0975C41.0326 40.9245 40.9476 40.7885 40.7746 40.6905C40.6056 40.5895 40.3326 40.5015 39.9546 40.4235C38.6977 40.1595 38.0677 39.6266 38.0677 38.8216C38.0677 38.3526 38.2627 37.9606 38.6497 37.6476C39.0407 37.3316 39.5507 37.1756 40.1796 37.1756ZM16.8669 38.9426H19.6169V40.0815H16.8669V38.9426Z" fill="#333333"/>
</svg>

<?xml version="1.0" encoding="UTF-8" standalone="no"?>
<!-- Created with Inkscape (http://www.inkscape.org/) -->
<svg id="svg8" xmlns:rdf="http://www.w3.org/1999/02/22-rdf-syntax-ns#" xmlns="http://www.w3.org/2000/svg" xmlns:osb="http://www.openswatchbook.org/uri/2009/osb" height="48" width="48" version="1.1" xmlns:cc="http://creativecommons.org/ns#" viewBox="0 0 12.7 12.7" xmlns:dc="http://purl.org/dc/elements/1.1/">
 <title id="title4753">UIO-icon</title>
 <metadata id="metadata5">
  <rdf:RDF>
   <cc:Work rdf:about="">
    <dc:format>image/svg+xml</dc:format>
    <dc:type rdf:resource="http://purl.org/dc/dcmitype/StillImage"/>
    <dc:title>UIO-icon</dc:title>
    <dc:creator>
     <cc:Agent>
      <dc:title>Joaquín Urbano</dc:title>
     </cc:Agent>
    </dc:creator>
    <dc:rights>
     <cc:Agent>
      <dc:title>GPL</dc:title>
     </cc:Agent>
    </dc:rights>
   </cc:Work>
  </rdf:RDF>
 </metadata>
 <g id="layer1" transform="translate(0,-284.3)">
  <path id="rect4852" d="m12.637 4v0.002c-4.23-0.0877-5.7493 3.8207-4.0843 14.668 0.9768 7.273-5.7704 1.702-3.7832-1.522-1.7922 2.547-0.4013 6.45 3.1543 6.454 3.9082 0.272 1.2856-11.432 3.9432-15.288 2.019-3.7743 6.176 0.4315 7.094 3.276-3.008 2.067-4.851 5.499-4.856 9.213 0 6.184 5.014 11.197 11.198 11.197s11.197-5.013 11.197-11.197c-0.004-5.815-4.458-10.66-10.252-11.151-0.277-0.0261-0.554-0.0385-0.832-0.0426-0.038-0.0005-0.075-0.0078-0.113-0.0078-0.005 0-0.015 0.0039-0.02 0.0039-1.913 0.1523-3.432 0.3088-5.012 1.2015 0.002 0 0.004 0.001 0.006 0.002-0.151 0.076-0.296 0.159-0.443 0.242-1.107-3.0473-2.666-6.1119-5.219-6.7776-0.713-0.167-1.374-0.2609-1.978-0.2734zm14.07 10.5c0.512 0.045 0.977 1.381 1.482 2.803 2.109 1.885 4.802 1.537 7.038 1.429 0.145 0.681 0.22 1.375 0.224 2.071 0.001 5.605-4.543 10.149-10.148 10.148-5.605 0-10.147-4.544-10.147-10.148 0.003-1.298 0.254-2.583 0.74-3.785 4.905 2.352 6.301 0.687 9.495 0.285 0.492-2.093 0.918-2.838 1.316-2.803zm-5.166 5.035c-0.579 0.001-1.048 0.47-1.049 1.049 0 0.58 0.469 1.05 1.049 1.051 0.581 0 1.051-0.47 1.051-1.051-0.001-0.58-0.471-1.049-1.051-1.049zm7.654 0c-0.579 0.001-1.048 0.47-1.049 1.049 0 0.58 0.47 1.05 1.049 1.051 0.581 0 1.052-0.47 1.051-1.051 0-0.58-0.471-1.049-1.051-1.049zm-7.226 5.647c-0.173 0.015-0.33 0.185-0.307 0.461 0.142 1.384 1.756 2.455 3.699 2.457 1.945-0.001 3.559-1.072 3.701-2.457-0.819 1.157-2.1 1.914-3.701 1.947-1.549-0.001-2.842-0.846-2.982-1.947-0.047-0.339-0.237-0.477-0.41-0.461zm-17.969 8.818v10h40v-10h-40zm3.7031 1.346c0.7751 0 1.367 0.256 1.7774 0.767 0.4103 0.508 0.6215 1.239 0.6305 2.194v1.308c0 0.984-0.2039 1.737-0.611 2.258s-1.0022 0.781-1.7871 0.781c-0.7751 0-1.367-0.256-1.7774-0.767-0.4103-0.512-0.621-1.243-0.6308-2.198v-1.31c0-0.993 0.2049-1.747 0.6152-2.262 0.4136-0.514 1.0081-0.771 1.7832-0.771zm15.379 0c0.775 0 1.367 0.256 1.777 0.767 0.411 0.508 0.621 1.239 0.631 2.194v1.308c0 0.984-0.204 1.737-0.611 2.258s-1.002 0.781-1.787 0.781c-0.775 0-1.369-0.256-1.78-0.767-0.41-0.512-0.619-1.243-0.628-2.198v-1.31c0-0.993 0.204-1.747 0.615-2.262 0.413-0.514 1.008-0.771 1.783-0.771zm-8.734 0.088h0.15v7.123h-1.412v-5.442l-1.686 0.522v-1.149l2.948-1.054zm12.72 0.011h3.987v1.178h-2.83l-0.176 1.529c0.335-0.179 0.692-0.269 1.07-0.269 0.678 0 1.208 0.211 1.592 0.631s0.578 1.008 0.578 1.763c0 0.46-0.099 0.872-0.295 1.237-0.192 0.361-0.468 0.642-0.83 0.843-0.361 0.199-0.787 0.299-1.279 0.299-0.43 0-0.829-0.087-1.197-0.26-0.369-0.175-0.661-0.42-0.876-0.736-0.211-0.316-0.322-0.676-0.335-1.08h1.396c0.029 0.296 0.133 0.527 0.309 0.693 0.179 0.163 0.41 0.245 0.697 0.245 0.319 0 0.566-0.114 0.738-0.342 0.173-0.232 0.26-0.557 0.26-0.977 0-0.404-0.1-0.713-0.299-0.928s-0.481-0.322-0.846-0.322c-0.335 0-0.606 0.088-0.814 0.264l-0.137 0.127-1.125-0.279 0.412-3.616zm4.651 0h1.607l1.469 3.205 1.48-3.205h1.604l-2.336 4.534v2.58h-1.49v-2.58l-2.334-4.534zm-24.016 1.045c-0.3322 0-0.5787 0.13-0.7383 0.387-0.1563 0.254-0.2382 0.653-0.248 1.197v1.729c0 0.579 0.0781 1.011 0.2344 1.295 0.1595 0.28 0.4132 0.42 0.7617 0.42 0.3452 0 0.595-0.134 0.748-0.405 0.1531-0.27 0.2318-0.685 0.2383-1.242v-1.689c0-0.59-0.0813-1.018-0.2441-1.286-0.1596-0.27-0.41-0.406-0.752-0.406zm15.379 0c-0.332 0-0.579 0.13-0.738 0.387-0.157 0.254-0.24 0.653-0.25 1.197v1.729c0 0.579 0.078 1.011 0.234 1.295 0.16 0.28 0.415 0.42 0.764 0.42 0.345 0 0.593-0.134 0.746-0.405 0.153-0.27 0.234-0.685 0.24-1.242v-1.689c0-0.59-0.081-1.018-0.244-1.286-0.16-0.27-0.41-0.406-0.752-0.406zm17.098 0.686c0.671 0 1.207 0.157 1.607 0.472 0.404 0.316 0.606 0.728 0.606 1.233h-1.413c0-0.202-0.065-0.37-0.195-0.5-0.13-0.134-0.334-0.199-0.611-0.199-0.238 0-0.421 0.052-0.551 0.16-0.13 0.107-0.197 0.244-0.197 0.41 0 0.156 0.074 0.285 0.22 0.383 0.15 0.094 0.401 0.176 0.752 0.248 0.352 0.068 0.648 0.146 0.889 0.234 0.746 0.274 1.119 0.748 1.119 1.422 0 0.482-0.205 0.872-0.619 1.172-0.413 0.296-0.949 0.445-1.603 0.445-0.443 0-0.837-0.078-1.182-0.234-0.342-0.16-0.611-0.377-0.807-0.651-0.195-0.276-0.293-0.575-0.293-0.894h1.338c0.013 0.251 0.107 0.445 0.28 0.578 0.172 0.133 0.403 0.199 0.693 0.199 0.27 0 0.474-0.049 0.611-0.15 0.14-0.104 0.209-0.24 0.209-0.406 0-0.173-0.085-0.309-0.258-0.407-0.169-0.101-0.442-0.189-0.82-0.267-1.257-0.264-1.887-0.797-1.887-1.602 0-0.469 0.195-0.861 0.582-1.174 0.391-0.316 0.901-0.472 1.53-0.472zm-23.313 1.767h2.75v1.139h-2.75v-1.139z" fill-rule="evenodd" transform="matrix(.26458 0 0 .26458 0 284.3)" fill="#333"/>
 </g>
</svg>
